src/assets/icons/icon-date-add-todo-done.svg

<!DOCTYPE svg PUBLIC "-//W3C//DTD SVG 1.1//EN" "http://www.w3.org/Graphics/SVG/1.1/DTD/svg11.dtd">
<!-- Uploaded to: SVG Repo, www.svgrepo.com, Transformed by: SVG Repo Mixer Tools -->
<svg width="800px" height="800px" viewBox="0 0 24 24" fill="none" xmlns="http://www.w3.org/2000/svg">
<g id="SVGRepo_bgCarrier" stroke-width="0"/>
<g id="SVGRepo_tracerCarrier" stroke-linecap="round" stroke-linejoin="round"/>
<g id="SVGRepo_iconCarrier"> <path d="M20 10V7C20 5.89543 19.1046 5 18 5H6C4.89543 5 4 5.89543 4 7V10M20 10V19C20 20.1046 19.1046 21 18 21H6C4.89543 21 4 20.1046 4 19V10M20 10H4M8 3V7M16 3V7" stroke="#f1e3c2" stroke-width="2" stroke-linecap="round"/> <rect x="6" y="12" width="3" height="3" rx="0.5" fill="#f1e3c2"/> <rect x="10.5" y="12" width="3" height="3" rx="0.5" fill="#f1e3c2"/> <rect x="15" y="12" width="3" height="3" rx="0.5" fill="#f1e3c2"/> </g>
</svg>

<svg xmlns="http://www.w3.org/2000/svg" width="800" height="800" fill="none" viewBox="0 0 24 24"><path stroke="#f1e3c2" stroke-linecap="round" stroke-width="2" d="M20 10V7a2 2 0 0 0-2-2H6a2 2 0 0 0-2 2v3m16 0v9a2 2 0 0 1-2 2H6a2 2 0 0 1-2-2v-9m16 0H4m4-7v4m8-4v4"/><rect width="3" height="3" x="6" y="12" fill="#f1e3c2" rx=".5"/><rect width="3" height="3" x="10.5" y="12" fill="#f1e3c2" rx=".5"/><rect width="3" height="3" x="15" y="12" fill="#f1e3c2" rx=".5"/></svg>
